X:0507
M:6/8
L:1/8
Q:3/8=76 "Slow"
K:C
e/d/|c2G cde |f2e def|gag {g}f2e|{e}d3 z2
e/d/|c2G cde |f2e def|gaf    efd|   c3 z2||
e/f/|g2a g2c'|g2f efg|abc'   efd|   c4 z :|

